Obsidian/actions/16s/aggregation.svg

<svg viewBox="0 0 16 16" xmlns="http://www.w3.org/2000/svg"><g fill="#f2f2f2"><path d="m7 2v4.6660156l-2.5 3.3339844 3 4 3-4-2.5-3.3339844v-4.6660156zm.5 5.6699219 1.75 2.3320311-1.75 2.330078-1.75-2.330078z"/><path d="m7.5 12.33 1.75-2.332-1.75-2.332-1.75 2.332z" fill-opacity=".5"/></g></svg>

<svg xmlns="http://www.w3.org/2000/svg" viewBox="0 0 16 16">
  <defs id="defs3051">
    <style type="text/css" id="current-color-scheme">
      .ColorScheme-Text {
        color:#f2f2f2;
      }
      </style>
  </defs>
  <path 
     style="fill:currentColor;fill-opacity:1;stroke:none" 
     d="M 7 2 L 7 6.6660156 L 4.5 10 L 7.5 14 L 10.5 10 L 8 6.6660156 L 8 2 L 7 2 z M 7.5 7.6699219 L 9.25 10.001953 L 7.5 12.332031 L 5.75 10.001953 L 7.5 7.6699219 z "
     class="ColorScheme-Text"/>
  <path
     d="M 7.5,12.33 9.25,9.998 7.5,7.666 5.75,9.998 Z"
     style="fill:currentColor;fill-opacity:0.5;stroke:none" 
     class="ColorScheme-Text"/>
</svg>
